X: 394
T:The trip to Birmingham
R:Reel
C:Josie McDermott
Z:Transcribed by Andrew Pickering
M:4/4
L:1/8
K:G
E|DGGF GA (3Bcd|e2 ed edBA|G3 B dG G2|ABAG EG D2|
DGGF GA (3Bcd|e2 ed efga|bg g2 ageg|dBAB G3:|
B|dggf g3 a|bgag edBA|G3 B dG G2|ABAG EG D2|
|1 dggf g3 a|bgaag edBA|G3 B dG G2|AGFA G3:|
|2 dg g2 ag g2|bgag edBA|G3 B dG G2| AGFA G3|]
<end>
<start>
